src/main/resources/icons/AllIcons/webreferences/messageQueue.svg

<!-- Copyright 2000-2021 JetBrains s.r.o. Use of this source code is governed by the Apache 2.0 license that can be found in the LICENSE file. -->
<svg width="16" height="16" viewBox="0 0 16 16" fill="none" xmlns="http://www.w3.org/2000/svg">
<path fill-rule="evenodd" clip-rule="evenodd" d="M1 6H11V14.0714H1V6ZM9.88889 8.53673V7.15306L6 9.74745L2.11111 7.15306V8.53673L6 11.1311L9.88889 8.53673Z" fill="#9AA7B0" fill-opacity="0.8"/>
<path fill-rule="evenodd" clip-rule="evenodd" d="M15 2H5V5H6.80553L6.11111 4.53673V3.15306L8.8796 5H11.1204L13.8889 3.15306V4.53673L12 5.79687V10.0714H15V2Z" fill="#9AA7B0" fill-opacity="0.8"/>
</svg>

<svg width="16" height="16" viewBox="0 0 16 16" fill="none" xmlns="http://www.w3.org/2000/svg"><rect id="frame" width="16" height="16" fill="none"/><path fill-rule="evenodd" clip-rule="evenodd" d="M1 6h10v8.071H1V6zm8.889 2.537V7.153L6 9.747 2.111 7.153v1.384L6 11.13l3.889-2.594z" fill="#9AA7B0" fill-opacity=".8"/><path fill-rule="evenodd" clip-rule="evenodd" d="M15 2H5v3h1.806l-.695-.463V3.153L8.88 5h2.24l2.769-1.847v1.384L12 5.797v4.274h3V2z" fill="#9AA7B0" fill-opacity=".8"/></svg>
